X: 13930
T: Foxhunters, The
R: reel
M: 4/4
K: Amajor
|:e2 cA eAcA|eAcA BAFA|e2 cA eAcA|BdcA BAFA:|
|:E3c cBcA|EAcA BAFA|E3c cBcA|BdcA BAFA:|
|:afec A2 ce|aece fB B2|afec Acec|Bcde fB B2:|
|:eaag a3f|ea a2 faec|eaag a3e|faec BABc:|
|:A2 cA eAcA|Ac c2 BABc|A2 cA eAcA|faec BABc:|

